public/right.svg

<svg width="24" height="24" viewBox="0 0 24 24" fill="none" xmlns="http://www.w3.org/2000/svg">
<path d="M9.12238 7.12747C8.96629 7.28355 8.96615 7.53658 9.12207 7.69284L13.1379 11.7175C13.2937 11.8736 13.2937 12.1264 13.1379 12.2825L9.12207 16.3072C8.96615 16.4634 8.96629 16.7164 9.12238 16.8725L9.967 17.7172C10.1232 17.8734 10.3765 17.8734 10.5327 17.7172L15.967 12.2828C16.1232 12.1266 16.1232 11.8734 15.967 11.7172L10.5327 6.28284C10.3765 6.12663 10.1232 6.12663 9.967 6.28284L9.12238 7.12747Z" fill="#C4CDD5"/>
</svg>

<svg xmlns="http://www.w3.org/2000/svg" width="24" height="24" fill="none" xmlns:v="https://vecta.io/nano"><path d="M9.122 7.127a.4.4 0 0 0 0 .565l4.016 4.025a.4.4 0 0 1 0 .565l-4.016 4.025a.4.4 0 0 0 0 .565l.845.845a.4.4 0 0 0 .566 0l5.434-5.434a.4.4 0 0 0 0-.566l-5.434-5.434a.4.4 0 0 0-.566 0l-.845.845z" fill="#c4cdd5"/></svg>
